src/static/images/default-anonymous-logo.svg

<svg width="88" height="88" viewBox="0 0 88 88" fill="none" xmlns="http://www.w3.org/2000/svg">
  <path d="M44 88C68.3005 88 88 68.3005 88 44C88 19.6995 68.3005 0 44 0C19.6995 0 0 19.6995 0 44C0 68.3005 19.6995 88 44 88Z" fill="#313233"/>
  <path fill-rule="evenodd" clip-rule="evenodd" d="M51.4473 58.1055C51.9413 58.3525 52.1415 58.9532 51.8945 59.4472L51.0001 59C51.8945 59.4472 51.8943 59.4476 51.894 59.4481L51.8924 59.4514L51.8895 59.4571L51.8813 59.4729C51.8749 59.4853 51.8663 59.5015 51.8557 59.5212C51.8344 59.5605 51.8045 59.614 51.7659 59.6795C51.6887 59.8105 51.576 59.9905 51.4255 60.203C51.1252 60.6269 50.6696 61.1872 50.0394 61.7474C48.7706 62.8752 46.7929 64 44.0001 64C42.3335 64 40.9483 63.5836 39.9811 63.1691C39.4965 62.9614 39.1125 62.7524 38.8449 62.5918C38.711 62.5115 38.6057 62.4429 38.531 62.3923C38.4937 62.367 38.4639 62.3462 38.442 62.3306L38.4151 62.3111L38.4061 62.3045L38.4027 62.3019L38.4013 62.3009C38.401 62.3007 38.4001 62.3 39.0001 61.5L38.4001 62.3C37.9582 61.9686 37.8687 61.3418 38.2001 60.9C38.5306 60.4592 39.1552 60.369 39.5968 60.6975L39.6045 60.7031C39.6134 60.7094 39.6295 60.7208 39.6527 60.7365C39.6991 60.768 39.7735 60.8166 39.8739 60.8769C40.0751 60.9976 40.3786 61.1635 40.769 61.3308C41.5518 61.6663 42.6667 62 44.0001 62C46.2073 62 47.7295 61.1248 48.7107 60.2526C49.2055 59.8127 49.5625 59.373 49.7934 59.047C49.9085 58.8845 49.9911 58.7519 50.0428 58.6642C50.0686 58.6203 50.0867 58.5879 50.0971 58.5686L50.107 58.55L50.1064 58.5512M50.1076 58.5489C50.1078 58.5484 50.1077 58.5486 50.1076 58.5489V58.5489ZM51.4473 58.1055C50.9546 57.8592 50.3557 58.0577 50.1076 58.5489L51.4473 58.1055Z" fill="#9D9FA3"/>
  <path fill-rule="evenodd" clip-rule="evenodd" d="M55 34C51.112 34 47.8 36.48 46.546 39.94C45.852 39.362 44.972 39 44 39C43.028 39 42.146 39.362 41.454 39.94C40.198 36.48 36.886 34 33 34C28.038 34 24 38.036 24 43C24 47.962 28.038 52 33 52C37.962 52 42 47.962 42 43C42 41.896 42.896 41 44 41C45.102 41 46 41.896 46 43C46 47.962 50.038 52 55 52C59.962 52 64 47.962 64 43C64 38.036 59.962 34 55 34ZM22.502 37.0941C22 36.8681 21.406 37.0841 21.176 37.5861C20.394 39.2881 20 41.1081 20 43.0001C20 43.5501 20.448 44.0001 21 44.0001C21.552 44.0001 22 43.5501 22 43.0001C22 41.3981 22.334 39.8581 22.994 38.4201C23.224 37.9181 23.004 37.3241 22.502 37.0941ZM65.4959 37.094C65.9979 36.862 66.5919 37.084 66.8199 37.586C67.6039 39.292 67.9999 41.116 67.9999 43C67.9999 43.55 67.5519 44 66.9999 44C66.4479 44 65.9999 43.55 65.9999 43C65.9999 41.404 65.6639 39.864 65.0019 38.418C64.7739 37.916 64.9919 37.322 65.4959 37.094Z" fill="white"/>
</svg>

<svg width="88" height="88" fill="none" xmlns="http://www.w3.org/2000/svg"><path d="M44 88c24.3 0 44-19.7 44-44S68.3 0 44 0 0 19.7 0 44s19.7 44 44 44z" fill="#313233"/><path fill-rule="evenodd" clip-rule="evenodd" d="M51.447 58.105a1 1 0 0 1 .447 1.342L51 59c.895.447.894.448.894.448l-.002.003-.003.006-.008.016a3.362 3.362 0 0 1-.115.206 7.51 7.51 0 0 1-.34.524c-.3.424-.756.984-1.387 1.544C48.771 62.875 46.793 64 44 64c-1.666 0-3.052-.416-4.019-.83a9.473 9.473 0 0 1-1.136-.578 6.774 6.774 0 0 1-.403-.261l-.027-.02-.009-.007-.003-.002-.002-.001.6-.801-.6.8a1 1 0 0 1 1.196-1.602l.008.005.048.033c.046.032.12.08.22.14.202.122.506.288.896.455.783.335 1.898.669 3.231.669 2.207 0 3.73-.875 4.71-1.747.495-.44.852-.88 1.083-1.206a5.52 5.52 0 0 0 .304-.478l.01-.019v.001m0-.002zm1.34-.444a1 1 0 0 0-1.34.444l1.34-.444z" fill="#9D9FA3"/><path fill-rule="evenodd" clip-rule="evenodd" d="M55 34c-3.888 0-7.2 2.48-8.454 5.94A3.964 3.964 0 0 0 44 39a3.96 3.96 0 0 0-2.546.94C40.198 36.48 36.886 34 33 34c-4.962 0-9 4.036-9 9 0 4.962 4.038 9 9 9s9-4.038 9-9a2 2 0 0 1 4 0c0 4.962 4.038 9 9 9s9-4.038 9-9c0-4.964-4.038-9-9-9zm-32.498 3.094a1.004 1.004 0 0 0-1.326.492A12.868 12.868 0 0 0 20 43c0 .55.448 1 1 1s1-.45 1-1c0-1.602.334-3.142.994-4.58a1 1 0 0 0-.492-1.326zm42.994 0a.996.996 0 0 1 1.324.492A12.882 12.882 0 0 1 68 43c0 .55-.448 1-1 1s-1-.45-1-1c0-1.596-.336-3.136-.998-4.582a.998.998 0 0 1 .494-1.324z" fill="#fff"/></svg>
